w3c-2025-transitional/w3c-letters-blue-circle.svg

<?xml version="1.0" encoding="UTF-8" standalone="no"?>
<!-- Created with Inkscape (http://www.inkscape.org/) -->

<svg
   width="120"
   height="120"
   viewBox="0 0 120 120"
   version="1.1"
   id="svg1"
   xmlns="http://www.w3.org/2000/svg"
   xmlns:svg="http://www.w3.org/2000/svg">
  <defs
     id="defs1" />
  <circle
     style="fill:#005a9c;stroke-width:17.0747;stroke-linecap:round"
     id="path1"
     cx="60"
     cy="60"
     r="60" />
  <g
     id="g2"
     style="fill:#ffffff"
     transform="matrix(0.20483169,0,0,0.20483169,23.536781,23.017325)">
    <path
       d="m 306.80028,149.60422 c -6.57831,-5.22164 -16.18258,-4.11126 -21.40437,2.46705 -6.46763,8.15442 -12.34209,13.06271 -19.03895,15.91953 -12.3507,5.25562 -22.8198,3.03441 -32.94112,-6.99345 -9.91806,-9.82474 -19.58153,-20.53078 -28.95701,-30.90671 -4.58604,-5.07758 -9.18023,-10.16361 -13.83407,-15.19045 -7.95131,-8.58691 -15.94475,-17.14014 -23.93018,-25.70183 l -0.70385,-0.7546 C 148.6218,69.85421 130.66786,50.62862 113.34968,31.3183 99.61724,16.00055 78.39966,8.41364 57.98727,11.48232 37.12548,14.60189 20.25655,27.95303 10.48285,49.06883 c -9.41762,20.33598 -6.23039,43.44391 8.30724,60.30423 25.57483,29.66072 47.14864,54.18407 72.41783,77.24986 10.33349,9.42608 22.83701,14.44431 36.15387,14.51211 8.6381,0.0426 21.65838,-0.93219 34.94171,-9.87548 5.81526,-3.91601 11.23186,-7.94285 13.6139,-14.08852 2.42447,-6.28959 0.16098,-13.52028 -5.51838,-17.59771 -5.51007,-3.9672 -12.74075,-3.68767 -17.99637,0.67804 -0.66142,0.55074 -1.38204,1.18679 -2.17002,1.87358 -8.2565,7.23069 -18.53079,16.23288 -39.47715,1.1948 C 91.56416,149.53641 76.70442,131.47223 59.48772,110.55154 53.87602,103.73584 48.06936,96.68319 41.86434,89.47773 35.23528,81.78948 33.80265,71.21044 38.12593,61.86032 41.89832,53.72266 49.17975,43.60119 62.50551,41.60936 c 10.09566,-1.51765 21.41238,2.5172 28.16859,10.04507 17.4624,19.47975 35.55195,38.85772 53.04802,57.58302 8.1973,8.77371 16.39415,17.55557 24.54902,26.36326 4.56927,4.93366 9.0789,9.92608 13.65633,14.99535 9.61287,10.63868 19.54755,21.63315 30.04203,32.0343 18.94578,18.7759 42.49435,23.53152 66.33996,13.38482 11.45233,-4.89123 21.29399,-12.83408 30.95745,-25.01519 5.21304,-6.56941 4.11126,-16.16552 -2.46661,-21.39577 z"
       id="path1-2" />
    <path
       d="m 330.6361,64.98331 c 9.85011,-4.6709 17.59815,-13.46152 18.33554,-24.12543 1.87344,-18.51314 -13.36805,-36.22984 -35.78948,-38.96811 -13.76627,-1.74599 -26.541,2.33145 -35.59408,9.83349 -4.84019,4.02639 -6.14582,11.4777 -1.94984,16.73332 4.58589,5.46749 9.87548,6.42505 18.53064,1.67002 3.10236,-1.7632 7.76481,-3.22981 12.89328,-2.87403 9.67207,0.67003 12.44387,9.38409 12.17266,13.34268 -0.0426,0.58501 0.0171,14.07992 -13.60529,13.13912 l -5.13707,-0.35579 c -5.72179,-0.39021 -11.44387,4.95888 -11.86746,11.07889 -0.45801,6.51066 4.30622,12.19832 10.23127,12.6139 l 6.31526,0.43219 c 17.37798,1.20385 15.56374,15.95335 15.19935,18.31017 -0.33902,6.78143 -11.22355,18.28435 -30.6355,5.20443 C 283.14876,96.58494 236.17,37.57744 236.17,37.57744 213.90999,8.79861 176.0861,3.72935 146.23903,25.53194 c -3.2804,2.3988 -5.44226,5.93366 -6.06941,9.9605 -0.61884,4.01779 0.35593,8.04448 2.75503,11.32488 2.3988,3.2804 5.93381,5.44226 9.95189,6.06941 4.04316,0.62745 8.05279,-0.35593 11.33349,-2.75503 20.36135,-14.87665 38.51024,-6.01022 47.84315,6.06111 0,0 50.43765,64.87335 63.4241,71.74796 8.42608,4.45903 17.22516,7.03588 26.168,7.65487 27.44827,1.89866 44.16438,-13.22414 48.67445,-33.94142 2.958,-13.57992 -5.82387,-30.55048 -19.68361,-36.67093 z"
       id="path2-3" />
  </g>
  <g
     id="g5"
     aria-label="W3C"
     style="fill:#ffffff"
     transform="matrix(0.20483169,0,0,0.20483169,23.536781,23.017325)">
    <path
       d="m 7.65638,245.62164 h 18.68735 c 1.9807,0 3.61006,0.4556 4.88419,1.35908 1.27413,0.90348 2.13515,2.09267 2.59075,3.56759 l 16.64873,65.1509 c 0.96139,3.3977 1.86874,7.33594 2.71816,11.80701 0.45174,-2.20851 0.90348,-4.31662 1.35908,-6.33208 0.45174,-2.00773 0.98842,-3.86102 1.61391,-5.55987 l 19.70666,-65.06596 c 0.45174,-1.30503 1.32819,-2.44789 2.63322,-3.44403 1.30116,-0.98842 2.85716,-1.48263 4.67184,-1.48263 h 6.54057 c 1.9807,0 3.57917,0.44016 4.79925,1.31275 1.21622,0.88031 2.08109,2.08495 2.59075,3.61392 l 19.70666,65.1509 c 0.56371,1.6448 1.08881,3.43631 1.57144,5.39771 0.47877,1.94596 0.94595,4.00002 1.40155,6.15447 0.39382,-2.15445 0.80695,-4.19307 1.23167,-6.11586 0.42472,-1.92279 0.86101,-3.70658 1.31661,-5.35138 l 16.64873,-65.23585 c 0.39382,-1.30503 1.25869,-2.44789 2.59075,-3.44403 1.32819,-0.98842 2.89963,-1.48263 4.71431,-1.48263 h 17.49816 L 130.31337,358.4253 H 110.09705 L 87.75717,283.42107 c -0.33977,-0.96526 -0.66796,-2.03862 -0.97684,-3.22782 -0.31274,-1.1892 -0.61004,-2.43244 -0.8919,-3.73747 -0.28572,1.30503 -0.5946,2.54828 -0.93437,3.73747 -0.33977,1.18919 -0.65251,2.26256 -0.93437,3.22782 L 61.2551,358.4253 H 41.12373 Z"
       id="path3" />
    <path
       d="m 212.19794,244.34751 c 5.20852,0 9.8958,0.76448 14.05798,2.29345 4.16218,1.52897 7.6873,3.61392 10.57534,6.23941 2.88805,2.64094 5.10813,5.72204 6.66799,9.26646 1.55599,3.5367 2.33592,7.31278 2.33592,11.33596 0,3.56759 -0.38224,6.71046 -1.14672,9.42862 -0.76448,2.71816 -1.88418,5.09655 -3.35523,7.13517 -1.47491,2.03862 -3.28573,3.76836 -5.43632,5.18149 -2.15445,1.41313 -4.5869,2.57916 -7.30506,3.48264 12.85335,4.36296 19.28195,13.05026 19.28195,26.07735 0,5.72204 -1.03475,10.74909 -3.1004,15.07343 -2.06951,4.33979 -4.84172,7.97687 -8.32437,10.91897 -3.48265,2.9421 -7.53286,5.1506 -12.14678,6.62552 -4.61778,1.47491 -9.47109,2.20851 -14.56764,2.20851 -5.38227,0 -10.1236,-0.62549 -14.22787,-1.86874 -4.10813,-1.24325 -7.70274,-3.12743 -10.7877,-5.65254 -3.08882,-2.51739 -5.74906,-5.64482 -7.9846,-9.38229 -2.23939,-3.73747 -4.1506,-8.06954 -5.73362,-12.9962 l 9.00391,-3.82241 c 2.37839,-0.96526 4.59848,-1.20464 6.66799,-0.71815 2.06565,0.47877 3.52511,1.59846 4.37454,3.35137 1.01931,1.92279 2.09267,3.72203 3.22782,5.38999 1.13128,1.67568 2.42086,3.15059 3.86488,4.41701 1.44402,1.28186 3.1004,2.28573 4.96914,3.01932 1.86874,0.73359 4.01932,1.10425 6.45563,1.10425 3.00001,0 5.61779,-0.49421 7.85718,-1.48263 2.23553,-0.99614 4.08882,-2.30117 5.56373,-3.90736 1.47105,-1.62163 2.5753,-3.44403 3.31276,-5.48265 0.73359,-2.03862 1.10425,-4.07724 1.10425,-6.11586 0,-2.60233 -0.24324,-4.98072 -0.72201,-7.13517 -0.48263,-2.15445 -1.55985,-3.9923 -3.22782,-5.52126 -1.67182,-1.52897 -4.11971,-2.71816 -7.34753,-3.56759 -3.22782,-0.84943 -7.6178,-1.27414 -13.16609,-1.27414 v -14.52517 c 4.64095,-0.0541 8.45178,-0.47877 11.42477,-1.27414 2.97299,-0.79537 5.30891,-1.91507 7.00776,-3.35137 1.69885,-1.45174 2.85716,-3.15832 3.48264,-5.14288 0.62162,-1.98457 0.93437,-4.19307 0.93437,-6.62552 0,-5.1506 -1.28958,-9.03479 -3.86488,-11.63712 -2.57916,-2.60233 -6.18922,-3.90736 -10.83017,-3.90736 -4.13516,0 -7.59077,1.15831 -10.36299,3.48264 -2.77608,2.32434 -4.70273,5.18149 -5.77609,8.57919 -0.90734,2.60233 -2.11198,4.30118 -3.61006,5.09655 -1.50194,0.79537 -3.64094,0.96526 -6.41316,0.50966 l -10.7877,-1.86874 c 0.79151,-5.49037 2.29345,-10.29349 4.50195,-14.40162 2.20851,-4.10041 4.98072,-7.52899 8.32437,-10.27032 3.33978,-2.74905 7.14675,-4.81856 11.42477,-6.20853 4.27415,-1.38225 8.87649,-2.07723 13.80316,-2.07723 z"
       id="path4-6" />
    <path
       d="m 335.38002,331.07381 c 1.1892,0 2.20851,0.4556 3.05793,1.35908 l 8.91896,9.5985 c -4.07724,5.72204 -9.18923,10.07727 -15.33212,13.08115 -6.14675,3.00388 -13.43636,4.50195 -21.8727,4.50195 -7.64483,0 -14.52517,-1.42858 -20.64103,-4.29346 -6.11586,-2.85716 -11.3128,-6.84945 -15.58695,-11.96917 -4.27801,-5.12744 -7.55988,-11.21241 -9.85333,-18.27036 -2.29345,-7.04251 -3.44017,-14.76455 -3.44017,-23.14297 0,-8.4402 1.23167,-16.17769 3.695,-23.23564 2.46333,-7.04251 5.93053,-13.11976 10.40546,-18.21631 4.47106,-5.09655 9.82244,-9.05796 16.05413,-11.89195 6.22783,-2.83399 13.08115,-4.24713 20.55609,-4.24713 7.58691,0 14.29737,1.34364 20.13137,4.03863 5.83014,2.68727 10.70276,6.23941 14.61011,10.65642 l -7.47494,10.44793 c -0.50966,0.62549 -1.09267,1.1892 -1.74132,1.69885 -0.65251,0.50966 -1.57144,0.76448 -2.76063,0.76448 -1.18919,0 -2.33592,-0.4556 -3.44017,-1.35908 -1.10425,-0.90348 -2.46333,-1.89962 -4.07724,-2.97299 -1.61391,-1.07337 -3.64094,-2.06951 -6.07339,-2.97299 -2.43631,-0.90348 -5.55215,-1.35908 -9.34368,-1.35908 -4.13516,0 -7.89965,0.86487 -11.29735,2.59461 -3.3977,1.72202 -6.31663,4.24713 -8.74908,7.55216 -2.43631,3.32048 -4.32048,7.36683 -5.64868,12.1545 -1.33205,4.77995 -1.99615,10.23171 -1.99615,16.34757 0,6.16991 0.73359,11.66801 2.20851,16.47885 1.47105,4.81083 3.4672,8.87263 5.98845,12.19311 2.51739,3.30504 5.47879,5.83014 8.87649,7.55216 3.3977,1.72974 7.05023,2.59461 10.95758,2.59461 2.32047,0 4.41701,-0.12355 6.28575,-0.3861 1.86874,-0.24711 3.61006,-0.70271 5.22396,-1.35908 1.61391,-0.64865 3.12743,-1.48263 4.54442,-2.50194 1.41313,-1.01931 2.83013,-2.29345 4.24713,-3.82241 0.56371,-0.4556 1.14672,-0.83398 1.74132,-1.15058 0.5946,-0.30888 1.20078,-0.46332 1.82626,-0.46332 z"
       id="path5" />
  </g>
</svg>

<?xml version="1.0" encoding="UTF-8" standalone="no"?>
<!-- Created with Inkscape (http://www.inkscape.org/) -->

<svg
   width="48"
   height="48"
   viewBox="0 0 48 48"
   version="1.1"
   id="svg1"
   sodipodi:docname="w3c-letters-blue-circle.svg"
   inkscape:version="1.2.2 (b0a8486541, 2022-12-01)"
   xmlns:inkscape="http://www.inkscape.org/namespaces/inkscape"
   xmlns:sodipodi="http://sodipodi.sourceforge.net/DTD/sodipodi-0.dtd"
   xmlns="http://www.w3.org/2000/svg"
   xmlns:svg="http://www.w3.org/2000/svg">
  <sodipodi:namedview
     id="namedview12"
     pagecolor="#ffffff"
     bordercolor="#666666"
     borderopacity="1.0"
     inkscape:showpageshadow="2"
     inkscape:pageopacity="0.0"
     inkscape:pagecheckerboard="0"
     inkscape:deskcolor="#d1d1d1"
     showgrid="false"
     inkscape:zoom="8.5583333"
     inkscape:cx="28.510224"
     inkscape:cy="60"
     inkscape:window-width="3840"
     inkscape:window-height="2067"
     inkscape:window-x="0"
     inkscape:window-y="0"
     inkscape:window-maximized="1"
     inkscape:current-layer="svg1" />
  <defs
     id="defs1" />
  <circle
     style="fill:#005a9c;stroke-width:6.82988;stroke-linecap:round"
     id="path1"
     cx="24"
     cy="24"
     r="24" />
  <g
     id="g2"
     style="fill:#ffffff"
     transform="matrix(0.08193268,0,0,0.08193268,9.4147124,9.20693)">
    <path
       d="M 306.80028,149.60422 C 300.22197,144.38258 290.6177,145.49296 285.39591,152.07127 278.92828,160.22569 273.05382,165.13398 266.35696,167.9908 254.00626,173.24642 243.53716,171.02521 233.41584,160.99735 223.49778,151.17261 213.83431,140.46657 204.45883,130.09064 199.87279,125.01306 195.2786,119.92703 190.62476,114.90019 182.67345,106.31328 174.68001,97.76005 166.69458,89.19836 L 165.99073,88.44376 C 148.6218,69.85421 130.66786,50.62862 113.34968,31.3183 99.61724,16.00055 78.39966,8.41364 57.98727,11.48232 37.12548,14.60189 20.25655,27.95303 10.48285,49.06883 1.06523,69.40481 4.25246,92.51274 18.79009,109.37306 44.36492,139.03378 65.93873,163.55713 91.20792,186.62292 101.54141,196.049 114.04493,201.06723 127.36179,201.13503 135.99989,201.17763 149.02017,200.20284 162.3035,191.25955 168.11876,187.34354 173.53536,183.3167 175.9174,177.17103 178.34187,170.88144 176.07838,163.65075 170.39902,159.57332 164.88895,155.60612 157.65827,155.88565 152.40265,160.25136 151.74123,160.8021 151.02061,161.43815 150.23263,162.12494 141.97613,169.35563 131.70184,178.35782 110.75548,163.31974 91.56416,149.53641 76.70442,131.47223 59.48772,110.55154 53.87602,103.73584 48.06936,96.68319 41.86434,89.47773 35.23528,81.78948 33.80265,71.21044 38.12593,61.86032 41.89832,53.72266 49.17975,43.60119 62.50551,41.60936 72.60117,40.09171 83.91789,44.12656 90.6741,51.65443 108.1365,71.13418 126.22605,90.51215 143.72212,109.23745 151.91942,118.01116 160.11627,126.79302 168.27114,135.60071 172.84041,140.53437 177.35004,145.52679 181.92747,150.59606 191.54034,161.23474 201.47502,172.22921 211.9695,182.63036 230.91528,201.40626 254.46385,206.16188 278.30946,196.01518 289.76179,191.12395 299.60345,183.1811 309.26691,170.99999 314.47995,164.43058 313.37817,154.83447 306.8003,149.60422 Z"
       id="path1-2" />
    <path
       d="M 330.6361,64.98331 C 340.48621,60.31241 348.23425,51.52179 348.97164,40.85788 350.84508,22.34474 335.60359,4.62804 313.18216,1.88977 299.41589,0.14378 286.64116,4.22122 277.58808,11.72326 272.74789,15.74965 271.44226,23.20096 275.63824,28.45658 280.22413,33.92407 285.51372,34.88163 294.16888,30.1266 297.27124,28.3634 301.93369,26.89679 307.06216,27.25257 316.73423,27.9226 319.50603,36.63666 319.23482,40.59525 319.19222,41.18026 319.25192,54.67517 305.62953,53.73437 L 300.49246,53.37858 C 294.77067,52.98837 289.04859,58.33746 288.625,64.45747 288.16699,70.96813 292.93122,76.65579 298.85627,77.07137 L 305.17153,77.50356 C 322.54951,78.70741 320.73527,93.45691 320.37088,95.81373 320.03186,102.59516 309.14733,114.09808 289.73538,101.01816 283.14876,96.58494 236.17,37.57744 236.17,37.57744 213.90999,8.79861 176.0861,3.72935 146.23903,25.53194 142.95863,27.93074 140.79677,31.4656 140.16962,35.49244 139.55078,39.51023 140.52555,43.53692 142.92465,46.81732 145.32345,50.09772 148.85846,52.25958 152.87654,52.88673 156.9197,53.51418 160.92933,52.5308 164.21003,50.1317 184.57138,35.25505 202.72027,44.12148 212.05318,56.19281 212.05318,56.19281 262.49083,121.06616 275.47728,127.94077 283.90336,132.3998 292.70244,134.97665 301.64528,135.59564 329.09355,137.4943 345.80966,122.3715 350.31973,101.65422 353.27773,88.0743 344.49586,71.10374 330.63612,64.98329 Z"
       id="path2-3" />
  </g>
  <g
     id="g5"
     aria-label="W3C"
     style="fill:#ffffff"
     transform="matrix(0.08193268,0,0,0.08193268,9.4147124,9.20693)">
    <path
       d="M 7.65638,245.62164 H 26.34373 C 28.32443,245.62164 29.95379,246.07724 31.22792,246.98072 32.50205,247.8842 33.36307,249.07339 33.81867,250.54831 L 50.4674,315.69921 C 51.42879,319.09691 52.33614,323.03515 53.18556,327.50622 53.6373,325.29771 54.08904,323.1896 54.54464,321.17414 54.99638,319.16641 55.53306,317.31312 56.15855,315.61427 L 75.86521,250.54831 C 76.31695,249.24328 77.1934,248.10042 78.49843,247.10428 79.79959,246.11586 81.35559,245.62165 83.17027,245.62165 H 89.71084 C 91.69154,245.62165 93.29001,246.06181 94.51009,246.9344 95.72631,247.81471 96.59118,249.01935 97.10084,250.54832 L 116.8075,315.69922 C 117.37121,317.34402 117.89631,319.13553 118.37894,321.09693 118.85771,323.04289 119.32489,325.09695 119.78049,327.2514 120.17431,325.09695 120.58744,323.05833 121.01216,321.13554 121.43688,319.21275 121.87317,317.42896 122.32877,315.78416 L 138.9775,250.54831 C 139.37132,249.24328 140.23619,248.10042 141.56825,247.10428 142.89644,246.11586 144.46788,245.62165 146.28256,245.62165 H 163.78072 L 130.31337,358.4253 H 110.09705 L 87.75717,283.42107 C 87.4174,282.45581 87.08921,281.38245 86.78033,280.19325 86.46759,279.00405 86.17029,277.76081 85.88843,276.45578 85.60271,277.76081 85.29383,279.00406 84.95406,280.19325 84.61429,281.38244 84.30155,282.45581 84.01969,283.42107 L 61.2551,358.4253 H 41.12373 Z"
       id="path3" />
    <path
       d="M 212.19794,244.34751 C 217.40646,244.34751 222.09374,245.11199 226.25592,246.64096 230.4181,248.16993 233.94322,250.25488 236.83126,252.88037 239.71931,255.52131 241.93939,258.60241 243.49925,262.14683 245.05524,265.68353 245.83517,269.45961 245.83517,273.48279 245.83517,277.05038 245.45293,280.19325 244.68845,282.91141 243.92397,285.62957 242.80427,288.00796 241.33322,290.04658 239.85831,292.0852 238.04749,293.81494 235.8969,295.22807 233.74245,296.6412 231.31,297.80723 228.59184,298.71071 241.44519,303.07367 247.87379,311.76097 247.87379,324.78806 247.87379,330.5101 246.83904,335.53715 244.77339,339.86149 242.70388,344.20128 239.93167,347.83836 236.44902,350.78046 232.96637,353.72256 228.91616,355.93106 224.30224,357.40598 219.68446,358.88089 214.83115,359.61449 209.7346,359.61449 204.35233,359.61449 199.611,358.989 195.50673,357.74575 191.3986,356.5025 187.80399,354.61832 184.71903,352.09321 181.63021,349.57582 178.96997,346.44839 176.73443,342.71092 174.49504,338.97345 172.58383,334.64138 171.00081,329.71472 L 180.00472,325.89231 C 182.38311,324.92705 184.6032,324.68767 186.67271,325.17416 188.73836,325.65293 190.19782,326.77262 191.04725,328.52553 192.06656,330.44832 193.13992,332.24756 194.27507,333.91552 195.40635,335.5912 196.69593,337.06611 198.13995,338.33253 199.58397,339.61439 201.24035,340.61826 203.10909,341.35185 204.97783,342.08544 207.12841,342.4561 209.56472,342.4561 212.56473,342.4561 215.18251,341.96189 217.4219,340.97347 219.65743,339.97733 221.51072,338.6723 222.98563,337.06611 224.45668,335.44448 225.56093,333.62208 226.29839,331.58346 227.03198,329.54484 227.40264,327.50622 227.40264,325.4676 227.40264,322.86527 227.1594,320.48688 226.68063,318.33243 226.198,316.17798 225.12078,314.34013 223.45281,312.81117 221.78099,311.2822 219.3331,310.09301 216.10528,309.24358 212.87746,308.39415 208.48748,307.96944 202.93919,307.96944 V 293.44427 C 207.58014,293.39017 211.39097,292.9655 214.36396,292.17013 217.33695,291.37476 219.67287,290.25506 221.37172,288.81876 223.07057,287.36702 224.22888,285.66044 224.85436,283.67588 225.47598,281.69131 225.78873,279.48281 225.78873,277.05036 225.78873,271.89976 224.49915,268.01557 221.92385,265.41324 219.34469,262.81091 215.73463,261.50588 211.09368,261.50588 206.95852,261.50588 203.50291,262.66419 200.73069,264.98852 197.95461,267.31286 196.02796,270.17001 194.9546,273.56771 194.04726,276.17004 192.84262,277.86889 191.34454,278.66426 189.8426,279.45963 187.7036,279.62952 184.93138,279.17392 L 174.14368,277.30518 C 174.93519,271.81481 176.43713,267.01169 178.64563,262.90356 180.85414,258.80315 183.62635,255.37457 186.97,252.63324 190.30978,249.88419 194.11675,247.81468 198.39477,246.42471 202.66892,245.04246 207.27126,244.34748 212.19793,244.34748 Z"
       id="path4-6" />
    <path
       d="M 335.38002,331.07381 C 336.56922,331.07381 337.58853,331.52941 338.43795,332.43289 L 347.35691,342.03139 C 343.27967,347.75343 338.16768,352.10866 332.02479,355.11254 325.87804,358.11642 318.58843,359.61449 310.15209,359.61449 302.50726,359.61449 295.62692,358.18591 289.51106,355.32103 283.3952,352.46387 278.19826,348.47158 273.92411,343.35186 269.6461,338.22442 266.36423,332.13945 264.07078,325.0815 261.77733,318.03899 260.63061,310.31695 260.63061,301.93853 260.63061,293.49833 261.86228,285.76084 264.32561,278.70289 266.78894,271.66038 270.25614,265.58313 274.73107,260.48658 279.20213,255.39003 284.55351,251.42862 290.7852,248.59463 297.01303,245.76064 303.86635,244.3475 311.34129,244.3475 318.9282,244.3475 325.63866,245.69114 331.47266,248.38613 337.3028,251.0734 342.17542,254.62554 346.08277,259.04255 L 338.60783,269.49048 C 338.09817,270.11597 337.51516,270.67968 336.86651,271.18933 336.214,271.69899 335.29507,271.95381 334.10588,271.95381 332.91669,271.95381 331.76996,271.49821 330.66571,270.59473 329.56146,269.69125 328.20238,268.69511 326.58847,267.62174 324.97456,266.54837 322.94753,265.55223 320.51508,264.64875 318.07877,263.74527 314.96293,263.28967 311.1714,263.28967 307.03624,263.28967 303.27175,264.15454 299.87405,265.88428 296.47635,267.6063 293.55742,270.13141 291.12497,273.43644 288.68866,276.75692 286.80449,280.80327 285.47629,285.59094 284.14424,290.37089 283.48014,295.82265 283.48014,301.93851 283.48014,308.10842 284.21373,313.60652 285.68865,318.41736 287.1597,323.22819 289.15585,327.28999 291.6771,330.61047 294.19449,333.91551 297.15589,336.44061 300.55359,338.16263 303.95129,339.89237 307.60382,340.75724 311.51117,340.75724 313.83164,340.75724 315.92818,340.63369 317.79692,340.37114 319.66566,340.12403 321.40698,339.66843 323.02088,339.01206 324.63479,338.36341 326.14831,337.52943 327.5653,336.51012 328.97843,335.49081 330.39543,334.21667 331.81243,332.68771 332.37614,332.23211 332.95915,331.85373 333.55375,331.53713 334.14835,331.22825 334.75453,331.07381 335.38001,331.07381 Z"
       id="path5" />
  </g>
</svg>
